X:1
T:Title
%%score { 1 | ( 2 3 ) }
L:1/8
M:3/4
K:C
V:1 treble nm="Grand Piano"
V:2 bass 
V:3 bass 
V:1
 z2 z2[Q:1/4=100] [G,EG]2 | [G,CE][G,DF] [G,EG][CEG] [CFA][CEG] | [G,CE]4 [G,EG]2 | %3
 [G,EG][G,EG] [G,DF]2 [G,CE]2 | [G,B,D]4 [G,B,D]2 | [G,CE][G,DF] [G,EG][CEG] [CFA][CEG] | %6
 [CFA]4 [CFA]2 | [CEG]4 .[B,DF]2 |[M:2/4] [G,CE]4 |] %9
V:2
 z2 z2 C,2 | C,C, C,C, C,C, | C,4 C,2 | C,C, B,,2 C,2 | G,,4 G,,2 | C,C, C,C, C,C, | F,4 F,2 | %7
 G,4 z G, |[M:2/4] C,4 |] %9
V:3
 x6 | x6 | x6 | x6 | x6 | x6 | x6 | z2 z2 G,,2 |[M:2/4] x4 |] %9

